X:539
T: "Sehnsucht"
N: Z1219
O: Europa, Mitteleuropa, Schweiz
R: Liebes - Lied
M: 4/4
L: 1/16
K: A
E4 | A2AGA2B2=c2A2B4 | =c2cAB8z2
E2 | A2AGA2B2=c2A2B4 | =c2cAB4e2z4
e2 | B2BAG2A2B2B=cB2e2 | d=cBAG2AABABcB2
AB | =c2ccd2d2e4d2d2 | =c2A2B2BcA4

@@@ Tune index: 10297
